src/img/ic_info.svg

<svg height="13.125" viewBox="0 0 13.125 13.125" width="13.125" xmlns="http://www.w3.org/2000/svg"><path d="m-7-11.812a6.563 6.563 0 0 0 -6.562 6.562 6.562 6.562 0 0 0 6.562 6.563 6.562 6.562 0 0 0 6.563-6.563 6.563 6.563 0 0 0 -6.563-6.562zm0 3.062a.875.875 0 0 1 .875.875.875.875 0 0 1 -.875.875.875.875 0 0 1 -.875-.875.875.875 0 0 1 .875-.875zm1.094 7h-2.188a.656.656 0 0 1 -.656-.656.656.656 0 0 1 .656-.656h.438v-1.75h-.219a.656.656 0 0 1 -.656-.656.656.656 0 0 1 .656-.656h.875a.656.656 0 0 1 .656.656v2.406h.438a.656.656 0 0 1 .656.656.656.656 0 0 1 -.656.656z" fill="#6b6d84" transform="translate(13.563 11.813)"/></svg>

<svg xmlns="http://www.w3.org/2000/svg" width="13.125" height="13.125" viewBox="0 0 13.125 13.125">
  <path id="_ic_info" data-name="✏️ ic_info" d="M-7-11.812A6.563,6.563,0,0,0-13.562-5.25,6.562,6.562,0,0,0-7,1.313,6.562,6.562,0,0,0-.437-5.25,6.563,6.563,0,0,0-7-11.812ZM-7-8.75a.875.875,0,0,1,.875.875A.875.875,0,0,1-7-7a.875.875,0,0,1-.875-.875A.875.875,0,0,1-7-8.75Zm1.094,7H-8.094a.656.656,0,0,1-.656-.656.656.656,0,0,1,.656-.656h.438v-1.75h-.219a.656.656,0,0,1-.656-.656.656.656,0,0,1,.656-.656H-7a.656.656,0,0,1,.656.656v2.406h.438a.656.656,0,0,1,.656.656A.656.656,0,0,1-5.906-1.75Z" transform="translate(13.563 11.813)" fill="#6b6d84"/>
</svg>
